X:1
T: The Drunken Piper
T: Highland Rory
R:Reel
Q: 232
K:Am
M:4/4
L:1/8
|:e|AA AB e4|ed Bd e2 g2|GG GB d4|dB GB d2 e2|
AA AB e4|ed Bd e2 a2|g2 eg e^f ed|B2 AA A2:|
|:e2|a4 e2 a2|ed e^f g2 a2|GG GB d3e|dB GB d2 e2|
a4 e2 a2|ed ef g2 a2|g2 eg e^f ed|B2 AA A2:|
